storage/app/icons/tabler/filled/file-euro.svg

<!--
unicode: "1019a"
version: "3.35"
-->
<svg
  xmlns="http://www.w3.org/2000/svg"
  width="24"
  height="24"
  viewBox="0 0 24 24"
  fill="currentColor"
>
  <path d="M12 2l.117 .007a1 1 0 0 1 .876 .876l.007 .117v4l.005 .15a2 2 0 0 0 1.838 1.844l.157 .006h4l.117 .007a1 1 0 0 1 .876 .876l.007 .117v9a3 3 0 0 1 -2.824 2.995l-.176 .005h-10a3 3 0 0 1 -2.995 -2.824l-.005 -.176v-14a3 3 0 0 1 2.824 -2.995l.176 -.005zm2.334 9.23a4 4 0 0 0 -5.208 2.77h-.126a1 1 0 0 0 0 2h.126a4 4 0 0 0 5.208 2.77a1 1 0 0 0 -.668 -1.885l-.156 .049a2 2 0 0 1 -2.243 -.934h.733a1 1 0 0 0 0 -2h-.733q .056 -.097 .124 -.19a2 2 0 0 1 2.275 -.695l.112 .032a1 1 0 0 0 .556 -1.918" />
  <path d="M19 7h-4l-.001 -4.001z" />
</svg>

<svg xmlns="http://www.w3.org/2000/svg" width="24" height="24" fill="currentColor" viewBox="0 0 24 24"><path d="m12 2 .117.007a1 1 0 0 1 .876.876L13 3v4l.005.15a2 2 0 0 0 1.838 1.844L15 9h4l.117.007a1 1 0 0 1 .876.876L20 10v9a3 3 0 0 1-2.824 2.995L17 22H7a3 3 0 0 1-2.995-2.824L4 19V5a3 3 0 0 1 2.824-2.995L7 2zm2.334 9.23A4 4 0 0 0 9.126 14H9a1 1 0 0 0 0 2h.126a4 4 0 0 0 5.208 2.77 1 1 0 0 0-.668-1.885l-.156.049A2 2 0 0 1 11.267 16H12a1 1 0 0 0 0-2h-.733q.056-.097.124-.19a2 2 0 0 1 2.275-.695l.112.032a1 1 0 0 0 .556-1.918"/><path d="M19 7h-4l-.001-4.001z"/></svg>
